projects/vfh1/img/icons/sch-pool.svg

<svg width="15" height="10" viewBox="0 0 15 10" fill="none" xmlns="http://www.w3.org/2000/svg">
<path fill-rule="evenodd" clip-rule="evenodd" d="M0.519442 9.77031C0.601866 9.84031 1.44065 9.00031 1.53278 8.80031H1.58126C1.64688 8.79117 1.70998 8.76826 1.76668 8.733C1.82339 8.69775 1.87249 8.65089 1.91096 8.59531C2.24875 8.14108 2.71712 7.80858 3.24914 7.64531C3.56143 7.53591 3.88902 7.48017 4.21884 7.48031C5.39702 7.48031 6.42005 8.20031 7.48187 8.61531C8.05835 8.86403 8.67526 8.99805 9.30005 9.01031C9.58216 9.0102 9.86342 8.97834 10.1388 8.91531C10.7908 8.78652 11.3875 8.45089 11.8455 7.95531C11.9473 7.83531 12.5922 7.09031 12.6697 6.95531C12.7389 6.84608 12.7639 6.71332 12.7394 6.58535C12.715 6.45737 12.643 6.34432 12.5388 6.27031C12.4635 6.2126 12.3707 6.18427 12.277 6.19031C12.1991 6.1881 12.122 6.20674 12.0532 6.24442C11.9843 6.2821 11.9262 6.33753 11.8843 6.40531L11.7679 6.57031C11.4625 6.93531 10.4831 7.82531 9.9449 7.95031C9.43948 8.04488 8.92024 8.02612 8.42247 7.89531C7.89573 7.73772 7.38313 7.53363 6.89035 7.28531C6.33019 7.00479 5.74788 6.77396 5.14974 6.59531C4.8455 6.51547 4.53277 6.47516 4.21884 6.47531C3.78506 6.47219 3.35391 6.54489 2.94368 6.69031C2.59091 6.80717 2.2562 6.97554 1.94974 7.19031C1.63607 7.41552 1.36219 7.69457 1.14005 8.01531C1.12326 8.03528 1.10863 8.05708 1.09641 8.08031C0.994593 8.32031 0.325502 9.64531 0.519442 9.77031ZM11.3994 2.63031C11.4004 2.29253 11.4983 1.96261 11.6809 1.68217C11.8635 1.40173 12.1225 1.18333 12.4253 1.05453C12.7281 0.925723 13.0611 0.892281 13.3823 0.958421C13.7035 1.02456 13.9985 1.18732 14.2301 1.42617C14.4617 1.66501 14.6196 1.96925 14.6837 2.30049C14.7478 2.63173 14.7154 2.97514 14.5905 3.28739C14.4656 3.59965 14.2538 3.86677 13.9819 4.05504C13.7099 4.24332 13.39 4.34432 13.0625 4.34531C12.8439 4.34597 12.6274 4.30206 12.4253 4.21611C12.2232 4.13016 12.0397 4.00386 11.8851 3.84447C11.7306 3.68509 11.6081 3.49577 11.5247 3.28739C11.4414 3.07902 11.3988 2.85571 11.3994 2.63031ZM5.09641 2.41531L8.24308 1.77031L8.29641 1.97531L8.45156 3.77031C8.39823 3.77031 4.84429 4.77031 4.11217 4.98531C4.6056 5.2556 5.13016 5.46055 5.67338 5.59531C7.75338 6.17531 9.29035 5.84031 10.6382 5.92031L9.18368 0.945312V0.915312C9.14406 0.777341 9.05613 0.659485 8.93695 0.584639C8.81778 0.509792 8.67589 0.483301 8.53884 0.510312L4.87338 1.27031C4.80115 1.28454 4.73244 1.31361 4.67133 1.35581C4.61023 1.398 4.55799 1.45244 4.51772 1.5159C4.47746 1.57935 4.44999 1.65052 4.43696 1.72515C4.42392 1.79978 4.42559 1.87636 4.44187 1.95031C4.47552 2.09648 4.56198 2.22391 4.68361 2.3066C4.80524 2.38929 4.95288 2.42102 5.09641 2.39531V2.41531Z" fill="#42474D"/>
</svg>

<svg width="15" height="10" fill="none" xmlns="http://www.w3.org/2000/svg"><path fill-rule="evenodd" clip-rule="evenodd" d="M.52 9.77c.082.07.92-.77 1.013-.97h.048a.475.475 0 00.33-.205 2.633 2.633 0 011.338-.95c.312-.11.64-.165.97-.165 1.178 0 2.201.72 3.263 1.135A4.827 4.827 0 009.3 9.01c.282 0 .563-.032.839-.095a3.16 3.16 0 001.707-.96c.101-.12.746-.865.824-1a.512.512 0 00-.131-.685.389.389 0 00-.262-.08.44.44 0 00-.393.215l-.116.165c-.306.365-1.285 1.255-1.823 1.38a3.473 3.473 0 01-1.523-.055 9.377 9.377 0 01-1.532-.61c-.56-.28-1.142-.511-1.74-.69a3.66 3.66 0 00-.931-.12 3.735 3.735 0 00-1.275.215 3.831 3.831 0 00-.994.5 3.393 3.393 0 00-.854.89C.995 8.32.326 9.645.52 9.77zM11.4 2.63c0-.337.098-.667.28-.948a1.67 1.67 0 01.745-.627c.303-.13.636-.163.957-.097.322.067.617.23.848.468.232.239.39.543.454.874a1.76 1.76 0 01-.093.987 1.7 1.7 0 01-.61.768 1.623 1.623 0 01-2.096-.21 1.716 1.716 0 01-.36-.558 1.758 1.758 0 01-.126-.657zm-6.304-.215l3.147-.645.053.205.156 1.795c-.054 0-3.608 1-4.34 1.215.494.27 1.018.476 1.561.61 2.08.58 3.617.245 4.965.325L9.184.945v-.03a.578.578 0 00-.247-.33.548.548 0 00-.398-.075l-3.666.76a.539.539 0 00-.355.246.575.575 0 00-.076.434.59.59 0 00.242.357.557.557 0 00.412.088v.02z" fill="#42474D"/></svg>
